svg/lock_open_minus.svg

<svg xmlns="http://www.w3.org/2000/svg" viewBox="0 0 24 24"><path d="M19 13c.34 0 .67.04 1 .09V10a2 2 0 0 0-2-2h-1V6c0-2.76-2.24-5-5-5S7 3.24 7 6h2c0-1.66 1.34-3 3-3s3 1.34 3 3v2H6a2 2 0 0 0-2 2v10a2 2 0 0 0 2 2h7.81c-.51-.88-.81-1.9-.81-3 0-3.31 2.69-6 6-6m-7 4c-1.1 0-2-.89-2-2s.9-2 2-2 2 .9 2 2-.89 2-2 2m11 1v2h-8v-2z"/></svg>

<?xml version="1.0" encoding="UTF-8"?><!DOCTYPE svg PUBLIC "-//W3C//DTD SVG 1.1//EN" "http://www.w3.org/Graphics/SVG/1.1/DTD/svg11.dtd"><svg xmlns="http://www.w3.org/2000/svg" xmlns:xlink="http://www.w3.org/1999/xlink" version="1.1" id="mdi-lock-open-minus" width="24" height="24" viewBox="0 0 24 24"><path d="M19 13C19.34 13 19.67 13.04 20 13.09V10C20 8.9 19.11 8 18 8H17V6C17 3.24 14.76 1 12 1S7 3.24 7 6H9C9 4.34 10.34 3 12 3S15 4.34 15 6V8H6C4.89 8 4 8.9 4 10V20C4 21.1 4.89 22 6 22H13.81C13.3 21.12 13 20.1 13 19C13 15.69 15.69 13 19 13M12 17C10.9 17 10 16.11 10 15S10.9 13 12 13 14 13.9 14 15 13.11 17 12 17M23 18V20H15V18H23Z" /></svg>
